X: 4021
T: Blackwater, The
R: polka
M: 2/4
K: Dmajor
d2|:cB cB|cB A>d/|cB cB|A2 Bc|d2 c2|BA F2|GF/G/ FE|D4:|
E|:F>E/ FA|G>F/ GB|A>F/ Ad|ce dc|B>c dB|AF FA|G2 FE|D4:|

